documentation/public/assets/images/08-link-dont.svg

<svg width="94" height="14" viewBox="0 0 94 14" fill="none" xmlns="http://www.w3.org/2000/svg">
<path d="M1.64773 13V1.36364H3.75568V11.233H8.88068V13H1.64773ZM10.6193 13V4.27273H12.6761V13H10.6193ZM11.6534 3.03409C11.3277 3.03409 11.0473 2.92614 10.8125 2.71023C10.5777 2.49053 10.4602 2.22727 10.4602 1.92045C10.4602 1.60985 10.5777 1.34659 10.8125 1.13068C11.0473 0.910984 11.3277 0.801136 11.6534 0.801136C11.983 0.801136 12.2633 0.910984 12.4943 1.13068C12.7292 1.34659 12.8466 1.60985 12.8466 1.92045C12.8466 2.22727 12.7292 2.49053 12.4943 2.71023C12.2633 2.92614 11.983 3.03409 11.6534 3.03409ZM16.848 7.88636V13H14.7912V4.27273H16.7571V5.75568H16.8594C17.0601 5.26705 17.3802 4.87879 17.8196 4.59091C18.2628 4.30303 18.8101 4.15909 19.4616 4.15909C20.0639 4.15909 20.5885 4.28788 21.0355 4.54545C21.4863 4.80303 21.8348 5.17614 22.081 5.66477C22.331 6.15341 22.4541 6.74621 22.4503 7.44318V13H20.3935V7.76136C20.3935 7.17803 20.242 6.72159 19.9389 6.39205C19.6397 6.0625 19.2249 5.89773 18.6946 5.89773C18.3348 5.89773 18.0147 5.97727 17.7344 6.13636C17.4579 6.29167 17.2401 6.51705 17.081 6.8125C16.9257 7.10795 16.848 7.46591 16.848 7.88636ZM26.4162 10.2614L26.4105 7.77841H26.7401L29.8764 4.27273H32.2798L28.4219 8.56818H27.9957L26.4162 10.2614ZM24.5412 13V1.36364H26.598V13H24.5412ZM30.0185 13L27.1776 9.02841L28.5639 7.57955L32.4787 13H30.0185ZM41.6534 13H37.7102V1.36364H41.733C42.8883 1.36364 43.8807 1.59659 44.7102 2.0625C45.5436 2.52462 46.1837 3.18939 46.6307 4.05682C47.0777 4.92424 47.3011 5.96212 47.3011 7.17045C47.3011 8.38258 47.0758 9.42424 46.625 10.2955C46.178 11.1667 45.5322 11.8352 44.6875 12.3011C43.8466 12.767 42.8352 13 41.6534 13ZM39.8182 11.1761H41.5511C42.3617 11.1761 43.0379 11.0284 43.5795 10.733C44.1212 10.4337 44.5284 9.98864 44.8011 9.39773C45.0739 8.80303 45.2102 8.06061 45.2102 7.17045C45.2102 6.2803 45.0739 5.54167 44.8011 4.95455C44.5284 4.36364 44.125 3.92235 43.5909 3.63068C43.0606 3.33523 42.4015 3.1875 41.6136 3.1875H39.8182V11.1761ZM53.0767 13.1705C52.2017 13.1705 51.446 12.9886 50.8097 12.625C50.1771 12.2576 49.6903 11.7386 49.3494 11.0682C49.0085 10.3939 48.8381 9.60038 48.8381 8.6875C48.8381 7.78977 49.0085 7.00189 49.3494 6.32386C49.6941 5.64205 50.1752 5.11174 50.7926 4.73295C51.41 4.35038 52.1354 4.15909 52.9688 4.15909C53.5066 4.15909 54.0142 4.24621 54.4915 4.42045C54.9725 4.59091 55.3968 4.85606 55.7642 5.21591C56.1354 5.57576 56.4271 6.03409 56.6392 6.59091C56.8513 7.14394 56.9574 7.80303 56.9574 8.56818V9.19886H49.804V7.8125H54.9858C54.982 7.41856 54.8968 7.06818 54.7301 6.76136C54.5634 6.45076 54.3305 6.20644 54.0312 6.02841C53.7358 5.85038 53.3911 5.76136 52.9972 5.76136C52.5767 5.76136 52.2074 5.86364 51.8892 6.06818C51.571 6.26894 51.3229 6.53409 51.1449 6.86364C50.9706 7.18939 50.8816 7.54735 50.8778 7.9375V9.14773C50.8778 9.6553 50.9706 10.0909 51.1562 10.4545C51.3419 10.8144 51.6013 11.0909 51.9347 11.2841C52.268 11.4735 52.6581 11.5682 53.1051 11.5682C53.4044 11.5682 53.6752 11.5265 53.9176 11.4432C54.16 11.3561 54.3703 11.2292 54.5483 11.0625C54.7263 10.8958 54.8608 10.6894 54.9517 10.4432L56.8722 10.6591C56.7509 11.1667 56.5199 11.6098 56.179 11.9886C55.8419 12.3636 55.41 12.6553 54.8835 12.8636C54.357 13.0682 53.7547 13.1705 53.0767 13.1705ZM63.1179 4.27273V5.86364H57.9588V4.27273H63.1179ZM59.2486 13V3.44886C59.2486 2.86174 59.3698 2.37311 59.6122 1.98295C59.8584 1.5928 60.188 1.30114 60.6009 1.10795C61.0137 0.914772 61.4721 0.818181 61.9759 0.818181C62.3319 0.818181 62.6482 0.84659 62.9247 0.903409C63.2012 0.960227 63.4058 1.01136 63.5384 1.05682L63.1293 2.64773C63.0421 2.62121 62.9323 2.5947 62.7997 2.56818C62.6671 2.53788 62.5194 2.52273 62.3565 2.52273C61.974 2.52273 61.7031 2.61553 61.544 2.80114C61.3887 2.98295 61.3111 3.24432 61.3111 3.58523V13H59.2486ZM66.9432 13.1761C66.3902 13.1761 65.892 13.0777 65.4489 12.8807C65.0095 12.6799 64.661 12.3845 64.4034 11.9943C64.1496 11.6042 64.0227 11.1231 64.0227 10.5511C64.0227 10.0587 64.1136 9.65152 64.2955 9.32955C64.4773 9.00758 64.7254 8.75 65.0398 8.55682C65.3542 8.36364 65.7083 8.2178 66.1023 8.11932C66.5 8.01705 66.911 7.94318 67.3352 7.89773C67.8466 7.8447 68.2614 7.79735 68.5795 7.75568C68.8977 7.71023 69.1288 7.64205 69.2727 7.55114C69.4205 7.45644 69.4943 7.31061 69.4943 7.11364V7.07955C69.4943 6.65152 69.3674 6.32008 69.1136 6.08523C68.8598 5.85038 68.4943 5.73295 68.017 5.73295C67.5133 5.73295 67.1136 5.8428 66.8182 6.0625C66.5265 6.2822 66.3295 6.54167 66.2273 6.84091L64.3068 6.56818C64.4583 6.03788 64.7083 5.5947 65.0568 5.23864C65.4053 4.87879 65.8314 4.60985 66.3352 4.43182C66.839 4.25 67.3958 4.15909 68.0057 4.15909C68.4261 4.15909 68.8447 4.20833 69.2614 4.30682C69.678 4.4053 70.0587 4.56818 70.4034 4.79545C70.7481 5.01894 71.0246 5.32386 71.233 5.71023C71.4451 6.09659 71.5511 6.57955 71.5511 7.15909V13H69.5739V11.8011H69.5057C69.3807 12.0436 69.2045 12.2708 68.9773 12.483C68.7538 12.6913 68.4716 12.8598 68.1307 12.9886C67.7936 13.1136 67.3977 13.1761 66.9432 13.1761ZM67.4773 11.6648C67.8902 11.6648 68.2481 11.5833 68.5511 11.4205C68.8542 11.2538 69.0871 11.0341 69.25 10.7614C69.4167 10.4886 69.5 10.1913 69.5 9.86932V8.84091C69.4356 8.89394 69.3258 8.94318 69.1705 8.98864C69.0189 9.03409 68.8485 9.07386 68.6591 9.10795C68.4697 9.14205 68.2822 9.17235 68.0966 9.19886C67.911 9.22538 67.75 9.24811 67.6136 9.26705C67.3068 9.30871 67.0322 9.37689 66.7898 9.47159C66.5473 9.56629 66.3561 9.69886 66.2159 9.86932C66.0758 10.036 66.0057 10.2519 66.0057 10.517C66.0057 10.8958 66.1439 11.1818 66.4205 11.375C66.697 11.5682 67.0492 11.6648 67.4773 11.6648ZM79.1818 9.32955V4.27273H81.2386V13H79.2443V11.4489H79.1534C78.9564 11.9375 78.6326 12.3371 78.1818 12.6477C77.7348 12.9583 77.1837 13.1136 76.5284 13.1136C75.9564 13.1136 75.4508 12.9867 75.0114 12.733C74.5758 12.4754 74.2348 12.1023 73.9886 11.6136C73.7424 11.1212 73.6193 10.5265 73.6193 9.82955V4.27273H75.6761V9.51136C75.6761 10.0644 75.8277 10.5038 76.1307 10.8295C76.4337 11.1553 76.8314 11.3182 77.3239 11.3182C77.6269 11.3182 77.9205 11.2443 78.2045 11.0966C78.4886 10.9489 78.7216 10.7292 78.9034 10.4375C79.089 10.142 79.1818 9.77273 79.1818 9.32955ZM85.4105 1.36364V13H83.3537V1.36364H85.4105ZM91.8835 4.27273V5.86364H86.8665V4.27273H91.8835ZM88.1051 2.18182H90.1619V10.375C90.1619 10.6515 90.2036 10.8636 90.2869 11.0114C90.3741 11.1553 90.4877 11.2538 90.6278 11.3068C90.768 11.3598 90.9233 11.3864 91.0938 11.3864C91.2225 11.3864 91.34 11.3769 91.446 11.358C91.5559 11.339 91.6392 11.322 91.696 11.3068L92.0426 12.9148C91.9328 12.9527 91.7756 12.9943 91.571 13.0398C91.3703 13.0852 91.1241 13.1117 90.8324 13.1193C90.3172 13.1345 89.8532 13.0568 89.4403 12.8864C89.0275 12.7121 88.6998 12.4432 88.4574 12.0795C88.2188 11.7159 88.1013 11.2614 88.1051 10.7159V2.18182Z" fill="#E27709"/>
</svg>

<svg width="94" height="14" fill="none" xmlns="http://www.w3.org/2000/svg"><path d="M1.65 13V1.36h2.1v9.87h5.13V13H1.65Zm8.97 0V4.27h2.06V13h-2.06Zm1.03-9.97c-.32 0-.6-.1-.84-.32a1.04 1.04 0 0 1-.35-.79c0-.31.12-.57.35-.79.24-.22.52-.33.84-.33.33 0 .61.11.84.33a1.05 1.05 0 0 1 0 1.58c-.23.22-.5.32-.84.32Zm5.2 4.86V13h-2.06V4.27h1.97v1.49h.1c.2-.5.52-.88.96-1.17.44-.29.99-.43 1.64-.43.6 0 1.13.13 1.58.39.45.25.8.63 1.04 1.11.25.5.37 1.09.37 1.78V13h-2.06V7.76c0-.58-.15-1.04-.45-1.37a1.6 1.6 0 0 0-1.25-.5c-.36 0-.68.09-.96.25-.27.15-.49.38-.65.67-.15.3-.23.66-.23 1.08Zm9.57 2.37-.01-2.48h.33l3.14-3.5h2.4l-3.86 4.29H28l-1.58 1.7ZM24.54 13V1.36h2.06V13h-2.06Zm5.48 0-2.84-3.97 1.38-1.45L32.48 13h-2.46Zm11.63 0h-3.94V1.36h4.02c1.16 0 2.15.24 2.98.7a4.67 4.67 0 0 1 1.92 2c.45.86.67 1.9.67 3.11s-.22 2.25-.67 3.13a4.67 4.67 0 0 1-1.94 2c-.84.47-1.85.7-3.04.7Zm-1.83-1.82h1.73a4.2 4.2 0 0 0 2.03-.45c.54-.3.95-.74 1.22-1.33.27-.6.41-1.34.41-2.23a5.5 5.5 0 0 0-.4-2.22 2.79 2.79 0 0 0-1.22-1.32 4.02 4.02 0 0 0-1.98-.44h-1.8v7.99Zm13.26 2a4.5 4.5 0 0 1-2.27-.55 3.7 3.7 0 0 1-1.46-1.56 5.21 5.21 0 0 1-.51-2.38c0-.9.17-1.69.5-2.37a3.87 3.87 0 0 1 3.63-2.16c.54 0 1.04.09 1.52.26s.9.44 1.27.8c.38.36.67.81.88 1.37.21.55.32 1.21.32 1.98v.63H49.8V7.8H55c0-.4-.1-.74-.26-1.05-.17-.3-.4-.55-.7-.73-.3-.18-.64-.27-1.03-.27a2 2 0 0 0-1.11.3 2.13 2.13 0 0 0-1.01 1.88v1.2c0 .52.1.95.28 1.31.18.36.44.64.77.83.34.2.73.29 1.18.29.3 0 .57-.04.8-.13a1.65 1.65 0 0 0 1.04-1l1.92.22a3 3 0 0 1-.7 1.33c-.33.37-.76.67-1.29.87-.52.2-1.13.31-1.8.31Zm10.04-8.9v1.58h-5.16V4.27h5.16ZM59.25 13V3.45c0-.59.12-1.08.36-1.47.25-.39.58-.68 1-.87.4-.2.86-.3 1.37-.3a4.74 4.74 0 0 1 1.56.25l-.41 1.59a3.57 3.57 0 0 0-.77-.13c-.39 0-.66.1-.82.28a1.2 1.2 0 0 0-.23.79V13h-2.06Zm7.7.18c-.56 0-1.06-.1-1.5-.3-.44-.2-.79-.5-1.05-.89a2.6 2.6 0 0 1-.38-1.44c0-.5.1-.9.28-1.22.18-.32.43-.58.74-.77.31-.2.67-.34 1.06-.44.4-.1.81-.18 1.24-.22l1.24-.14c.32-.05.55-.12.7-.2.14-.1.21-.25.21-.45v-.03c0-.43-.12-.76-.38-1-.25-.23-.62-.35-1.1-.35-.5 0-.9.11-1.2.33-.28.22-.48.48-.58.78l-1.92-.27a3.07 3.07 0 0 1 2.03-2.14 5.44 5.44 0 0 1 2.93-.13c.4.1.79.27 1.13.5.35.22.62.52.83.91.22.39.32.87.32 1.45V13h-1.98v-1.2h-.06a2.51 2.51 0 0 1-1.38 1.2c-.34.12-.73.19-1.19.19Zm.53-1.52c.41 0 .77-.08 1.07-.24.3-.17.54-.39.7-.66.17-.27.25-.57.25-.9V8.85a.97.97 0 0 1-.33.15l-.51.12a15.72 15.72 0 0 1-1.05.16c-.3.04-.58.1-.82.2s-.43.23-.57.4a.97.97 0 0 0-.21.65c0 .38.13.66.41.86.28.19.63.28 1.06.28Zm11.7-2.33V4.27h2.06V13h-2v-1.55h-.09c-.2.49-.52.89-.97 1.2-.45.3-1 .46-1.65.46a2.65 2.65 0 0 1-2.54-1.5 3.95 3.95 0 0 1-.37-1.78V4.27h2.06v5.24c0 .55.15 1 .45 1.32.3.33.7.49 1.2.49a1.89 1.89 0 0 0 1.57-.88c.19-.3.28-.67.28-1.11Zm6.23-7.97V13h-2.06V1.36h2.06Zm6.47 2.91v1.6h-5.01v-1.6h5.01Zm-3.77-2.09h2.05v8.2c0 .27.04.48.13.63.08.15.2.24.34.3.14.05.3.08.46.08a2.01 2.01 0 0 0 .6-.08l.35 1.6a4.59 4.59 0 0 1-1.2.2 3.3 3.3 0 0 1-1.4-.22 2.17 2.17 0 0 1-.98-.81 2.4 2.4 0 0 1-.35-1.36V2.18Z" fill="#E27709"/></svg>
